svgs/duotone/check-to-slot.svg

<svg xmlns="http://www.w3.org/2000/svg" viewBox="0 0 576 512"><!--! Font Awesome Pro 6.3.0 by @fontawesome - https://fontawesome.com License - https://fontawesome.com/license (Commercial License) Copyright 2023 Fonticons, Inc. --><defs><style>.fa-secondary{opacity:.4}</style></defs><path class="fa-primary" d="M528 288H480v80h16c8.836 0 16 7.164 16 16s-7.164 16-16 16h-416C71.16 400 64 392.8 64 384s7.164-16 16-16H96V288H48C21.49 288 0 309.5 0 336v96C0 458.5 21.49 480 48 480h480c26.51 0 48-21.49 48-48v-96C576 309.5 554.5 288 528 288zM256.4 282.2C260.8 285.1 266.2 287.1 271.1 287.1c.7813 0 1.606-.0187 2.388-.1125c6.531-.625 12.5-3.906 16.53-9.062l88-112c8.188-10.41 6.375-25.5-4.062-33.69c-10.38-8.156-25.5-6.344-33.69 4.062L268.6 229.5L231.6 197.8C221.6 189.2 206.4 190.3 197.8 200.4C189.2 210.4 190.3 225.6 200.4 234.2L256.4 282.2z"/><path class="fa-secondary" d="M432 32h-288C117.5 32 96 53.49 96 80v320h384v-320C480 53.49 458.5 32 432 32zM378.9 166.8l-88 112c-4.031 5.156-10 8.438-16.53 9.062C273.6 287.1 272.7 287.1 271.1 287.1c-5.719 0-11.21-2.019-15.58-5.769l-56-48C190.3 225.6 189.2 210.4 197.8 200.4c8.656-10.06 23.81-11.19 33.84-2.594l36.97 31.69l72.53-92.28c8.188-10.41 23.31-12.22 33.69-4.062C385.3 141.3 387.1 156.4 378.9 166.8z"/></svg>

<svg xmlns="http://www.w3.org/2000/svg" viewBox="0 0 576 512"><!-- Font Awesome Pro 6.0.0-alpha2 by @fontawesome - https://fontawesome.com License - https://fontawesome.com/license (Commercial License) --><defs><style>.fa-secondary{opacity:.4}</style></defs><path d="M432 32H144C117.49 32 96 53.492 96 80V400H480V80C480 53.492 458.51 32 432 32ZM378.875 166.812L290.875 278.812C286.844 283.969 280.875 287.25 274.344 287.875C273.562 287.969 272.781 288 272 288C266.281 288 260.75 285.969 256.375 282.219L200.375 234.219C190.312 225.594 189.156 210.438 197.781 200.375C206.438 190.313 221.594 189.188 231.625 197.781L268.594 229.469L341.125 137.188C349.313 126.781 364.438 124.969 374.813 133.125C385.25 141.312 387.062 156.406 378.875 166.812Z" class="fa-secondary"/><path d="M528 288H480V368H496C504.836 368 512 375.164 512 384S504.836 400 496 400H80C71.164 400 64 392.836 64 384S71.164 368 80 368H96V288H48C21.492 288 0 309.492 0 336V432C0 458.508 21.492 480 48 480H528C554.508 480 576 458.508 576 432V336C576 309.492 554.508 288 528 288ZM256.375 282.219C260.75 285.969 266.281 288 272 288C272.781 288 273.562 287.969 274.344 287.875C280.875 287.25 286.844 283.969 290.875 278.813L378.875 166.813C387.063 156.406 385.25 141.313 374.813 133.125C364.438 124.969 349.313 126.781 341.125 137.188L268.594 229.469L231.625 197.781C221.594 189.188 206.438 190.312 197.781 200.375C189.156 210.438 190.312 225.594 200.375 234.219L256.375 282.219Z" class="fa-primary"/></svg>
